icons/editor-typography-filled.svg

<svg width="24" height="24" viewBox="0 0 24 24" fill="none" xmlns="http://www.w3.org/2000/svg">
<g id=" Typography filled">
<path id="Icon" fill-rule="evenodd" clip-rule="evenodd" d="M4.80039 2.40039C3.47491 2.40039 2.40039 3.47491 2.40039 4.80039V19.2004C2.40039 20.5259 3.47491 21.6004 4.80039 21.6004H19.2004C20.5259 21.6004 21.6004 20.5259 21.6004 19.2004V4.80039C21.6004 3.47491 20.5259 2.40039 19.2004 2.40039H4.80039ZM7.50284 7.1998H16.498C16.6689 7.1998 16.8004 7.33078 16.8004 7.5011V9.91184C16.8004 10.0822 16.6557 10.2132 16.4979 10.2132H15.0908C14.9199 10.2132 14.7884 10.0691 14.7884 9.91184V9.20434H12.9999V14.7953H13.71C13.8809 14.7953 14.0125 14.9394 14.0125 15.0966V16.4985C14.0125 16.6688 13.8678 16.7998 13.71 16.7998H10.2908C10.1198 16.7998 9.98833 16.6557 9.98833 16.4985V15.0966C9.98833 14.9263 10.133 14.7953 10.2908 14.7953H11.0009V9.20434H9.21242V9.89876C9.21242 10.0691 9.06778 10.2001 8.90997 10.2001H7.50284C7.3319 10.2001 7.20039 10.056 7.20039 9.89876V7.50113C7.20039 7.33082 7.34503 7.1998 7.50284 7.1998Z" fill="black"/>
</g>
</svg>

<svg xmlns="http://www.w3.org/2000/svg" width="24" height="24" fill="none" viewBox="0 0 24 24"><path fill="currentColor" fill-rule="evenodd" d="M4.8 2.4a2.4 2.4 0 0 0-2.4 2.4v14.4a2.4 2.4 0 0 0 2.4 2.4h14.4a2.4 2.4 0 0 0 2.4-2.4V4.8a2.4 2.4 0 0 0-2.4-2.4zm2.703 4.8h8.995c.17 0 .302.13.302.301v2.41c0 .171-.144.302-.302.302H15.09a.305.305 0 0 1-.303-.301v-.708H13v5.591h.71c.17 0 .302.144.302.302v1.402c0 .17-.144.3-.302.3h-3.42a.305.305 0 0 1-.302-.3v-1.402c0-.17.145-.302.303-.302H11v-5.59H9.212v.694c0 .17-.144.301-.302.301H7.503A.305.305 0 0 1 7.2 9.9V7.5c0-.17.145-.301.303-.301" clip-rule="evenodd"/></svg>
